X:1
T:Title
%%score ( 1 2 ) { 3 | 4 }
L:1/8
Q:1/4=93
M:3/4
K:Ab
V:1 treble nm="Grand Piano, Soprano"
V:2 treble 
V:3 bass nm="Choir Pad, Bass"
V:4 bass 
V:1
 [CE]2 [Ec]3 [DB] | [CA][DF] [CE]4 | [CE]2 [DF]3 [FA] | [EG][DF] [CE]4 | E2 [EB]3 [E=A] | %5
w: By~Robert~Lowry * *|||||
 [EB][Ec] [EA]4 | [Ec]2 B3 G | FG E4 | [Ed]2 [Ec]3 [DB] | [DB][CA] [Fd]4 | [Fd]2 [Ec]3 [EB] | %11
w: ||||||
 [EA][Ec] [EB]4 | [Ed]2 [Ee]3 [Ec] | [DB][CA] [FA] [Fd]3 | [Fd]2 [Fc]3 [FB] | [EA][EG] [EA]4- | %16
w: |||||
 [EA]4 z2 |] %17
w: |
V:2
 x6 | x6 | x6 | x6 | x6 | x6 | z2 E4 | =D2 z2 z2 | x6 | x6 | x6 | x6 | x6 | x6 | x6 | x6 | x6 |] %17
V:3
 A,2 A,3 A, | A,A, A,4 | A,2 A,4 | A,2 A,4 | C2 D3 C | DE C4 | A,2 G,3 B, | A,B, G,4 | B,2 A,3 G, | %9
 G,A, A,4 | A,2 A,3 G, | A,A, G,4 | A,2 C3 A, | G,A, A, A,3 | B,2[K:treble] E3 D | CB, C4- | %16
 C4 z2 |] %17
V:4
 A,,2 A,,3 A,, | A,,A,, A,,4 | A,,2 D,4 | D,2 A,,4 | A,2 E,3 E, | E,E, A,,4 | A,,2 B,,4 | %7
 B,,2 E,4 | E,2 z2 z E, | E,F, D,4 | D,2 A,,3 B,, | C,A,, E,4 | z2 A,4 | E,F, D, D,3 | %14
 B,,2 C,3 D, | E,E, A,,4- | A,,4 z2 |] %17

